svg/material-icons/update_disabled/materialiconsoutlined/20px.svg

<svg xmlns="http://www.w3.org/2000/svg" width="20" height="20" viewBox="0 0 20 20"><path d="M10.75 6v2.63l-1.5-1.5V6h1.5zm5.15 7.77A6.94 6.94 0 0 0 17 10h-1.5c0 .97-.25 1.89-.7 2.68l1.1 1.09zM2.93 2.93 1.87 3.99 4.1 6.23A7 7 0 0 0 3 10c0 3.87 3.13 7 7 7a7 7 0 0 0 3.77-1.1l2.24 2.24 1.06-1.06L2.93 2.93zM10 15.5A5.51 5.51 0 0 1 4.5 10c0-.97.25-1.89.7-2.68l7.48 7.48c-.79.45-1.71.7-2.68.7zm0-11c1.7 0 3.22.78 4.22 2H12V8h5V3h-1.5v2.71C14.22 4.07 12.24 3 10 3a7 7 0 0 0-3.77 1.1l1.09 1.1c.79-.45 1.71-.7 2.68-.7z"/></svg>

<svg xmlns="http://www.w3.org/2000/svg" enable-background="new 0 0 20 20" height="20" viewBox="0 0 20 20" width="20"><rect fill="none" height="20" width="20"/><path d="M10.75,6v2.63l-1.5-1.5V6H10.75z M15.9,13.77c0.7-1.09,1.1-2.38,1.1-3.77h-1.5c0,0.97-0.25,1.89-0.7,2.68L15.9,13.77z M2.93,2.93L1.87,3.99L4.1,6.23C3.41,7.31,3,8.61,3,10c0,3.87,3.13,7,7,7c1.39,0,2.69-0.41,3.77-1.1l2.24,2.24l1.06-1.06L2.93,2.93z M10,15.5c-3.03,0-5.5-2.47-5.5-5.5c0-0.97,0.25-1.89,0.7-2.68l7.48,7.48C11.89,15.25,10.97,15.5,10,15.5z M10,4.5 c1.7,0,3.22,0.78,4.22,2H12V8h5V3h-1.5v2.71C14.22,4.07,12.24,3,10,3C8.61,3,7.31,3.41,6.23,4.1L7.32,5.2C8.11,4.75,9.03,4.5,10,4.5 z"/></svg>
